svg/credit_card_refund.svg

<svg xmlns="http://www.w3.org/2000/svg" viewBox="0 0 24 24"><path d="M18 11H6a2 2 0 0 0-2 2v8a2 2 0 0 0 2 2h12a2 2 0 0 0 2-2v-8a2 2 0 0 0-2-2m0 6H6v-3h12m-1-9v5h-1.5V6.5H9.88l2.42 2.43L11.24 10 7 5.75l4.24-4.25 1.06 1.07L9.88 5Z"/></svg>

<?xml version="1.0" encoding="UTF-8"?><!DOCTYPE svg PUBLIC "-//W3C//DTD SVG 1.1//EN" "http://www.w3.org/Graphics/SVG/1.1/DTD/svg11.dtd"><svg xmlns="http://www.w3.org/2000/svg" xmlns:xlink="http://www.w3.org/1999/xlink" version="1.1" id="mdi-credit-card-refund" width="24" height="24" viewBox="0 0 24 24"><path d="M18 11H6A2 2 0 0 0 4 13V21A2 2 0 0 0 6 23H18A2 2 0 0 0 20 21V13A2 2 0 0 0 18 11M18 17H6V14H18M17 5V10H15.5V6.5H9.88L12.3 8.93L11.24 10L7 5.75L11.24 1.5L12.3 2.57L9.88 5Z" /></svg>
